Obsidian/actions/22s/attention.svg

<svg height="22" width="22" xmlns="http://www.w3.org/2000/svg"><path d="m10.953125 2.9941406a.92705394.93778191 0 0 0 -.753906.46875l-4.0332034 7.0683594-4.0351562 7.066406a.92705394.93778191 0 0 0 .8046875 1.408203h8.0664061 8.068359a.92705394.93778191 0 0 0 .800782-1.408203l-4.03125-7.066406-4.035156-7.0683594a.92705394.93778191 0 0 0 -.851563-.46875zm-.953125 4.0058594h2v6h-2zm0 8h2v2h-2z" fill="#bebebe"/></svg>

<svg xmlns="http://www.w3.org/2000/svg" width="22" height="22" version="1.1">
 <defs>
  <style id="current-color-scheme" type="text/css">
   .ColorScheme-Text { color:#bebebe; } .ColorScheme-Highlight { color:#4285f4; }
  </style>
 </defs>
 <path style="fill:currentColor" class="ColorScheme-Text" d="M 10.953125 2.9941406 A 0.92705394 0.93778191 0 0 0 10.199219 3.4628906 L 6.1660156 10.53125 L 2.1308594 17.597656 A 0.92705394 0.93778191 0 0 0 2.9355469 19.005859 L 11.001953 19.005859 L 19.070312 19.005859 A 0.92705394 0.93778191 0 0 0 19.871094 17.597656 L 15.839844 10.53125 L 11.804688 3.4628906 A 0.92705394 0.93778191 0 0 0 10.953125 2.9941406 z M 10 7 L 12 7 L 12 13 L 10 13 L 10 7 z M 10 15 L 12 15 L 12 17 L 10 17 L 10 15 z"/>
</svg>
